X: 802
T: Yuo beijing
%%abc-version 2.0
%%abcx-abcm2ps-target-version 5.9.1 (29 Sep 2008)
%%abc-creator hum2abc beta
%%abcx-conversion-date 2013/10/02 07:52:31
%%abc-edited-by Helmut Schaffrath
%%humdrum-veritas 2645674804
%%humdrum-veritas-data 3020621621
%%continueall 1
%%barnumbers 0
L: 1/8
M: 2/4
K: A
z e c B [I:setbarnb 1]| 
e d c B | 
z e f e | 
c B F A | 
z e c e | 
B cB2 | 
A B A F | 
E4 | 
A GA2 | 
z Be2 | 
e2A2 | 
B FE2 | 
B ce2 | 
B ce2 | 
B c B c | 
B ce2 | 
B4 | 
z B B B | 
e fe2 | 
c B F A | 
B4 | 
B3F | 
E4 |]  
